X:1
T:Clairières dans le ciel
T:Nous nous aimerons tant
T:Clairières dans le ciel
T:Lili Boulanger
T:7. Nous nous aimerons tant 
T:Francis Jammes
T:à HENRI ALBERS
T:Creative Commons copyright waiver (CC0 1.0 Universal)
T:Creative Commons copyright waiver (CC0 1.0 Universal)
T:Creative Commons copyright waiver (CC0 1.0 Universal)
C:Lili Boulanger
Z:Francis Jammes
Z:Creative Commons copyright waiver (CC0 1.0 Universal)
%%score ( 1 2 ) { 3 | 4 }
L:1/8
Q:1/4=52
M:3/4
K:Db
V:1 treble nm="Chant\nVoice"
V:2 treble 
V:3 treble nm="Piano"
V:4 bass 
V:1
"^Lent" z6 | z6 |!p!"^très ému et très contenu" z (D F G A B | _c3) (B A G | F G A2- A) z | %5
w: ||Nous nous ai- me- rons|tant que nous tai-|\- rons nos mots, _|
"^*" z!<(! (=A, =B, =D!<)! F!>(! =G | =A6-)!>)! || %7
w: en nous ten- dant la|main,|
[M:4/4] =A!pp! (!tenuto!^C2"^à l'aise" !tenuto!^D2 !tenuto!^E !tenuto!^G !tenuto!^F || %8
w: _ quand nous nous re- ver-|
[M:3/4] _A6-) | _A2 z2"^*" z2 |!p! (F G A2 B _c | e3- e) (d _c | A G A2- A) z | %13
w: \- rons|_|Vous se- rez om- bra-|gé- e par d'an-|ciens ra- meaux _|
!pp!"^sans nuances" (E E G2 A A | E2) (G2 A2 | E2 G2 A2 | A6-) | A z z2 z2 | z6 | z6 | z6 | %21
w: Sur le banc que je|sais où nous|nous as- soie-|rons,|_||||
 z6[Q:1/4=56][Q:1/4=60][Q:1/4=64] | z2 z2[Q:1/4=52]"^Lent"!p! z =D- | %23
w: |Donc|
 =D- D/ z/ z D/4 D/4 D/4 D/4 ^E3/2 E/4 E/4 | ^G2- G/ z/4 G/4 G- G/ z/ =B- | %25
w: _ _ nous nous  as- soie- rons sur  ce|banc _ tous  deux _ seuls|
 =B4- B- B/ !fermata!z/ | z6 | z2 z!pp! (D D3/2 D/ | E3)!<(! (D !tenuto!E G!<)! | A6- | %30
w: _ _ _||D'un long mo-|ment, ô mon a-|mi-|
!>(! A3!>)! E E) z | z2!<(! (=E2!<)! ^G!>(! G!>)! |!p! =B6-) |!>(! =B4-!>)! B- B/ z/ | %34
w: * * e,|vous n'o- se-|rez|_ _ _|
 z"^confiant" (F!<(! A A =B B!<)! | =d4 d2) |[Q:1/4=50]"^rit." (E2 _F[Q:1/4=49] F G G | %37
w: Que vous me se- rez|dou- ce|et que je trem- ble-|
[Q:1/4=48] A6-) | A6- | A4- A z | z6 | z6 |] %42
w: rai|_||||
V:2
 x6 | x6 | x6 | x6 | x6 | x6 | x6 ||[M:4/4] x8 ||[M:3/4] x6 | x6 | x6 | x6 | x6 | x6 | x6 | x6 | %16
 x6 | x6 | x6 | x6 | x6 | x"_en pressant" x x x x x | x6 | x6 | x6 | x6 | x6 | x6 | x6 | x6 | x6 | %31
 x6 | x6 | x6 | x6 | x6 | x6 | x6 | x6 | x6 | x6 | x6 |] %42
V:3
"^Lent" z6 | z6 | z6 | z6 | z6 | z6 | z6 ||[M:4/4] z8 ||[M:3/4] z6 | z6 | z6 | z6 | z6 | z6 | z6 | %15
 z6 | z6 | z6 | z6 | z6 | z6 | z6 | z2 z2"^Lent" z2 | z6 | z6 | z6 | z6 | z6 | z6 | z6 | z6 | z6 | %32
 z6 | z6 | z6 | z6 | z6 | z6 | z6 | z6 | z6 | z6 |] %42
V:4
 z6 | z6 | z6 | z6 | z6 | z6 | z6 ||[M:4/4] z8 || %8
[M:3/4]"_*  These 5 measures may be sung an octave higher" z6 | z6 | z6 | z6 | z6 | z6 | z6 | z6 | %16
 z6 | z6 | z6 | z6 | z6 | z6 | z6 | z6 | z6 | z6 | z6 | z6 | z6 | z6 | z6 | z6 | z6 | z6 | z6 | %35
 z6 | z6 | z6 | z6 | z6 | z6 | z6 |] %42

